src/.images/svg/General/TopPanel/premium.svg

<svg width="32" height="32" viewBox="0 0 32 32" xmlns="http://www.w3.org/2000/svg"><path fill-rule="evenodd" clip-rule="evenodd" d="M3.65197 22.4339C3.85532 23.3489 4.66695 24 5.60434 24H26.3957C27.3331 24 28.1447 23.3489 28.348 22.4339L32 6L24 12L16 0L8 12L0 6L3.65197 22.4339ZM16 19C14.3431 19 13 17.6569 13 16C13 14.3431 14.3431 13 16 13C17.6569 13 19 14.3431 19 16C19 17.6569 17.6569 19 16 19Z" fill="white"/><path d="M4 26.6667C4 26.2985 4.29848 26 4.66667 26H27.3333C27.7015 26 28 26.2985 28 26.6667V29.3333C28 29.7015 27.7015 30 27.3333 30H4.66667C4.29848 30 4 29.7015 4 29.3333V26.6667Z" fill="white"/></svg>

<svg xmlns="http://www.w3.org/2000/svg" viewBox="0 0 32 32"><path fill-rule="evenodd" d="M3.652 22.434A2 2 0 0 0 5.604 24h20.792a2 2 0 0 0 1.952-1.566L32 6l-8 6-8-12-8 12-8-6zM16 19a3 3 0 1 1 0-6 3 3 0 0 1 0 6" clip-rule="evenodd"/><path d="M4 26.667c0-.369.298-.667.667-.667h22.666c.369 0 .667.299.667.667v2.666a.667.667 0 0 1-.667.667H4.667A.667.667 0 0 1 4 29.333z"/></svg>
